icons/Valid.svg

<svg version="1.2" xmlns="http://www.w3.org/2000/svg" viewBox="0 0 128 128" width="512" height="512">
	<title>Nouveau projet</title>
	<style>
		.s0 { fill: #cfcfcf } 
		.s1 { fill: #559921 } 
	</style>
	<g id="Valid">
		<path id="Forme 2" class="s0" d="m63.5 109c-25.2 0-45.5-20.3-45.5-45.5 0-25.2 20.3-45.5 45.5-45.5 25.2 0 45.5 20.3 45.5 45.5 0 25.2-20.3 45.5-45.5 45.5z"/>
		<path id="Forme 1" fill-rule="evenodd" class="s1" d="m18.7 109.3c-12-12-18.7-28.3-18.7-45.3 0-17 6.7-33.3 18.7-45.3 12-12 28.3-18.7 45.3-18.7 17 0 33.3 6.7 45.3 18.7 12 12 18.7 28.3 18.7 45.3 0 17-6.7 33.3-18.7 45.3-12 12-28.3 18.7-45.3 18.7-17 0-33.3-6.7-45.3-18.7zm73.5-65.6c-2.3-2.3-6.1-2.3-8.4 0l-27.8 27.8-11.8-11.7c-2.3-2.4-6.1-2.4-8.4 0-2.4 2.3-2.4 6.1 0 8.4l16 16c2.3 2.4 6.1 2.4 8.4 0l32.1-32c2.3-2.3 2.2-6.1-0.1-8.5z"/>
	</g>
</svg>

<?xml version="1.0" encoding="UTF-8" standalone="no"?>
<svg
   version="1.2"
   viewBox="0 0 128 128"
   width="512"
   height="512"
   id="svg9"
   sodipodi:docname="Valid.svg"
   inkscape:version="1.2.2 (b0a8486541, 2022-12-01)"
   xmlns:inkscape="http://www.inkscape.org/namespaces/inkscape"
   xmlns:sodipodi="http://sodipodi.sourceforge.net/DTD/sodipodi-0.dtd"
   xmlns="http://www.w3.org/2000/svg"
   xmlns:svg="http://www.w3.org/2000/svg">
  <defs
     id="defs13" />
  <sodipodi:namedview
     id="namedview11"
     pagecolor="#ffffff"
     bordercolor="#000000"
     borderopacity="0.25"
     inkscape:showpageshadow="2"
     inkscape:pageopacity="0.0"
     inkscape:pagecheckerboard="0"
     inkscape:deskcolor="#d1d1d1"
     showgrid="false"
     inkscape:zoom="1.4394531"
     inkscape:cx="254.61058"
     inkscape:cy="256"
     inkscape:window-width="1920"
     inkscape:window-height="1052"
     inkscape:window-x="0"
     inkscape:window-y="0"
     inkscape:window-maximized="1"
     inkscape:current-layer="svg9" />
  <title
     id="title2">Nouveau projet</title>
  <style
     id="style4">
		.s0 { fill: #cfcfcf } 
		.s1 { fill: #559921 } 
	</style>
  <path
     id="Forme 2"
     class="s0"
     d="M 63.5,109 C 38.3,109 18,88.7 18,63.5 18,38.3 38.3,18 63.5,18 88.7,18 109,38.3 109,63.5 109,88.7 88.7,109 63.5,109 Z"
     style="fill:#ffffff;fill-opacity:1" />
  <path
     id="Forme 1"
     fill-rule="evenodd"
     class="s1"
     d="M 18.7,109.3 C 6.7,97.3 0,81 0,64 0,47 6.7,30.7 18.7,18.7 30.7,6.7 47,0 64,0 81,0 97.3,6.7 109.3,18.7 121.3,30.7 128,47 128,64 128,81 121.3,97.3 109.3,109.3 97.3,121.3 81,128 64,128 47,128 30.7,121.3 18.7,109.3 Z M 92.2,43.7 c -2.3,-2.3 -6.1,-2.3 -8.4,0 L 56,71.5 44.2,59.8 c -2.3,-2.4 -6.1,-2.4 -8.4,0 -2.4,2.3 -2.4,6.1 0,8.4 l 16,16 c 2.3,2.4 6.1,2.4 8.4,0 l 32.1,-32 c 2.3,-2.3 2.2,-6.1 -0.1,-8.5 z"
     style="fill:#28d517;fill-opacity:1" />
</svg>
